!!!OTL: Drei Schwestern vor der Himmelst&uuml;r (61a), S. 187f
!!!id: T0207
**kern
*clefG2
*k[f#c#]
*D:
{8d
=1
4d
16e
16e
8f#
8f#
8d
=2
8f#
8f#
8g
4a}
=3
{8a
=4
4b
16a
16a
8dd
8dd
8dd
=5
8dd
8dd
8ee
8dd
8cc#}
=6
{8b
=7
8a
8a
8f#
4a
8b
=8
4g
8e
4f#}
=9
{8f#
=10
8f#
8f#
8g
4a
8b
=11
4g
8e
4f#}
==
*-
!!!minrhy: 16
!!!meters: 6/8 ]  ZZ[4
!!!cut: Drei Schwestern vor der Himmelst&uuml;r (61a), S. 187f
!!!reg: Luxemburg
!!!trd: Singendes Volk, Esch-Alzette 1937 posth.
!!!rhy1: X_  X__XXX_X_X_  X_X_X_X__
!!!rhy2: X_  X__XXX_X_X_  X_X_X_X_X_
!!!key: T0207  16  D 6/8 ]  ZZ[4
!!!mod: HEPTATONIK IONISCH]  AMBITUS[9
!!!kad: 5733
!!!akz: 1335_6+1+1+1_5543_3543_
!!!fot: 'a__b__c__cw_
!!!for: 'a__aw_b__b__
!!!fok: '/__^a_Sd_^__
!! PHRAS[AUFTAKTIG]
!!!fkt: Liebeslieder
!!!bem: Echternach, fff Maas, 1922
!! THILL, Mathias:
!! PR[29] 2K[3] 2G[21] 3K[6] 3G[3] 4A[0] 4Ü[0] 5A[0] 6K[0] 6G[0]
!! 7K[0] 7G[0] 8A[3] MEHR[0] SI[35] ABS[34] SR[24] SP[12]
!! ST[8] 2k[3] 2g[12] 3k[12] 3g[9] 4d[0] 4ü[0] 5d[0] 6k[0] 6g[0]
!! 7k[0] 7g[0] 8d[0] mehr[0] si[35] dm[0] sr[15] sp[21]
!! 1F[6] 2F[54] 3F[40] 4F[0] LF[0] 2P[0] 3P[0] 4P[0] TRI[0] DF[3] AB[35]
!! TF[0] U3K[0] U3[0] U4[0] U4Ü[0] U5[0] U6K[0] U6[0] U7K[0] U7[0]
!! N1[20] N2K[0] N2[9] N3K[0] N3[20] N4[9] N4Ü[0] N5[14] N6K[0] N6[9]
!!!n7k: 0] N7[3] O1[14] O2K[0] O2[3] O3K[0] O3[0] HÖ[0
!!!RNB: symbol: &uuml;  = u umlaut (UTF-8: Ã¼)
